X:328
T:B328-  Northern Nancy
Q:1/4=120
L:1/4
M:6/4
K:G mixolydian
G2G^F2G|A2Bc2A|B3/2c/d^F2G|[1 A3G3:|[2 A3G2]|:d|\
f2dc3/2B/A|B2cd2A|B3/2c/d^F2G|A3G2:|]

